X: 13389
T: Flight Attendant, The
R: jig
M: 6/8
K: Amixolydian
|eaa Ace|ded cBA|eae g{a}g{f}g|a{b}a{g}a g{a}g{f}g|
agf eAe|dAd cde|eae {a}gfe|dBe A3:|
|:ABc eAe|dAd eAe|e(3:2:1A(3:2:1B(3:2:1c eAe|dAd AB=c|
A2 A eAe|dAd cde|eae {a}gfe|dBe A3:|

